static/images/cs-cybersierra-logo.svg

<svg width="305" height="49" viewBox="0 0 305 49" fill="none" xmlns="http://www.w3.org/2000/svg">
<path d="M113.997 5.74314C115.459 5.78859 117.131 5.73616 118.609 5.72363C118.528 6.93342 118.528 17.5596 118.804 18.3186C119.801 18.5797 120.004 17.5725 120.616 16.9757C126.338 11.3646 136.725 15.9008 137.41 23.6767C137.836 28.5109 137.819 31.305 134.839 35.2904C132.906 37.5853 129.489 38.9304 126.528 38.7899C124.14 38.6767 122.727 37.7897 120.683 36.7667C120.305 36.0048 119.964 35.0891 119.066 34.8614C118.25 35.425 118.981 37.2373 118.412 37.9611C117.481 38.2288 115.036 38.1626 113.938 38.1867C114.08 36.5416 114.087 34.5502 114.047 32.8941C113.83 23.9346 114.379 14.6726 113.997 5.74314ZM125.854 34.7939C131.748 34.0139 133.52 29.9483 132.768 24.5532C132.506 22.6729 131.515 21.1365 129.99 20.0457C128.668 19.1067 127.097 18.5817 125.476 18.5378C119.927 19.6025 117.723 23.4012 118.697 28.8727C119.393 32.7887 122.166 34.3287 125.854 34.7939Z" fill="black"/>
<path d="M198.396 5.15658C198.684 5.13278 198.972 5.11543 199.26 5.10451C202.669 4.96923 206.76 5.58317 209.319 8.01993C212.115 10.6834 212.035 13.4474 212.176 16.9303C210.632 16.8102 208.701 16.8115 207.127 16.7699C207.093 15.4129 207.05 14.056 206.998 12.6995C206.529 11.9469 205.808 11.1733 205.217 10.4944C201.288 9.21898 199.638 8.77074 195.555 10.59C194.016 13.0096 193.139 16.1319 196.378 17.7443C200.649 19.8706 205.98 19.6995 209.941 22.7108C213.881 25.7062 213.978 31.0826 210.933 34.7277C208.433 37.7433 205.278 38.412 201.605 38.8532C201.524 38.8541 201.444 38.8538 201.363 38.852C196.834 38.7636 191.924 37.0836 189.695 32.9061C188.424 30.5254 188.413 29.0856 188.471 26.519C190.067 26.4719 191.665 26.4529 193.261 26.4621C193.13 34.6207 200.713 36.3243 206.733 32.7129C208.252 30.1551 208.936 26.9065 205.606 25.3603C201.553 23.479 196.899 23.588 192.985 21.099C188.818 18.4478 188.032 13.3895 190.677 9.37341C192.638 6.44797 195.143 5.802 198.396 5.15658Z" fill="black" fill-opacity="0.988235"/>
<path d="M290.734 14.6039C291.325 14.5728 291.922 14.5411 292.515 14.5597C306.923 15.0148 299.538 31.096 302.304 33.9123C302.753 34.3713 304.328 34.2467 304.956 34.2559C304.902 35.6931 304.908 36.6413 304.999 38.0754C303.551 38.0933 299.821 38.3353 298.767 37.0628C298.251 36.4409 298.387 34.9945 296.961 34.997C296.483 35.3144 296.233 36.0744 295.986 36.6316C293.416 38.2963 291.811 39.1131 288.54 38.7391C286.613 38.5185 284.029 37.4087 282.838 35.8287C281.564 34.2006 281.354 31.9358 281.678 30.0188C282.578 24.7441 288.365 24.1935 292.695 24.3997C294.263 24.4745 295.614 24.3673 297.206 24.6351C297.092 23.3969 297.214 21.8269 296.525 20.7728C293.61 16.3126 287.937 18.204 286.588 22.8721C285.79 22.5496 282.678 21.5082 282.297 21.0079C283.113 19.7448 283.246 18.7578 284.375 17.6153C286.177 15.7923 288.311 15.0497 290.734 14.6039ZM293.007 34.6794C293.978 34.2338 295.358 33.2833 296.167 32.5694C296.782 30.7399 296.974 30.0369 297.342 28.1924C294.98 28.2534 292.629 28.1529 290.285 28.223C282.387 28.904 286.576 36.8125 293.007 34.6794Z" fill="black"/>
<path d="M235.279 14.6044C239.838 14.3156 244.083 15.9276 246.266 20.1902C247.57 22.7396 247.561 25.2395 247.753 27.9903C242.596 27.9667 234.896 28.2241 230.011 27.8707C230.095 28.5809 230.195 29.7956 230.46 30.4285C232.731 35.8651 240.71 36.6191 243.043 30.7273C243.964 31.002 246.006 32.2012 246.946 32.7203C246.77 33.0377 246.584 33.3498 246.391 33.6561C244.734 36.2359 242.392 37.8882 239.396 38.542C236.227 39.2168 232.92 38.6111 230.197 36.8571C228.13 35.5198 226.08 32.9547 225.709 30.4904C224.471 22.2509 226.618 16.3565 235.279 14.6044ZM229.959 24.3779L236.888 24.3958C238.768 24.3999 241.171 24.3464 243.009 24.4389C242.912 23.9585 242.821 23.4671 242.708 22.9906C241.953 19.7994 238.834 18.4107 235.841 18.5449C232.436 19.2748 230.729 21.0511 229.959 24.3779Z" fill="black" fill-opacity="0.988235"/>
<path d="M150.543 14.6194C150.885 14.5985 151.225 14.5818 151.567 14.5697C154.48 14.4712 157.638 15.4634 159.751 17.5099C162.764 20.4275 163.121 24.0342 163.24 27.9305C157.545 27.7868 150.817 28.171 145.298 27.8153C145.359 28.2585 145.431 28.6999 145.514 29.1394C146.632 34.8226 154.435 37.0831 157.888 31.724C159.037 30.0318 161.018 31.8963 162.292 32.8132C160.989 35.689 158.037 37.8323 154.988 38.5223C151.79 39.2218 148.444 38.6268 145.683 36.8679C143.649 35.5561 141.514 32.8674 141.146 30.4084C139.961 22.4962 142.038 16.3685 150.543 14.6194ZM145.236 24.4285C147.66 24.404 150.083 24.3915 152.508 24.3911C154.383 24.3953 156.663 24.3455 158.5 24.4364C158.151 23.0504 157.82 22.2808 157.398 20.982C155.373 19.3682 154.218 18.4096 151.432 18.5548C147.799 19.2023 146.483 21.1248 145.236 24.4285Z" fill="black" fill-opacity="0.988235"/>
<path d="M69.0465 5.14816C74.4996 4.73124 79.5516 5.89468 82.0256 11.2198C83.0813 13.4918 83.0469 14.9002 83.2219 17.3576C81.6177 17.2876 80.0748 17.3379 78.4728 17.3771C78.2961 14.861 77.5491 11.3485 75.0812 10.3556C67.6814 7.37789 62.5583 11.9118 63.035 19.573C63.2359 22.0597 62.7226 25.0769 63.154 27.4915C64.4117 34.5317 70.8225 35.9953 76.3754 32.5946C78.0184 29.9114 78.3031 29.2232 78.513 26.118C79.7364 26.0097 81.8069 26.0541 83.0934 26.0424C83.1253 29.0443 83.0539 31.1636 81.3544 33.7378C76.0056 42.0929 60.0551 39.673 58.5238 29.4691C58.0661 26.4182 57.9813 17.0825 58.6154 14.1859C58.9642 12.6336 59.6024 11.1612 60.4966 9.84525C62.7206 6.58431 65.4318 5.84333 69.0465 5.14816Z" fill="black" fill-opacity="0.988235"/>
<path d="M103.842 15.2207C105.345 15.2776 107.032 15.2454 108.55 15.2493C108.063 24.3535 109.047 34.88 108.33 44.1004C108.312 44.3366 108.064 45.076 107.986 45.3209C106.379 47.5512 104.236 47.4267 101.752 47.4515C97.755 47.4916 93.7225 47.315 89.7325 47.4807C89.7907 46.0238 89.8444 44.9731 89.7089 43.5285C94.3808 43.3739 99.121 43.623 103.749 43.4149C103.831 40.395 103.854 37.3738 103.82 34.353C102.875 35.0958 102.186 36.2835 101.38 36.876C96.6769 40.3347 88.4411 38.0586 87.4099 31.9457C86.8445 28.5943 87.2194 24.5852 87.1283 21.1303C87.088 19.5998 87.0197 16.7123 87.2424 15.273L91.5654 15.2749C91.5128 18.1825 91.4922 21.0907 91.504 23.9986C91.502 26.0356 91.4165 28.1122 91.7262 30.1295C92.447 34.8225 98.6447 35.8926 101.741 32.8694C102.668 31.9515 103.318 30.7911 103.616 29.5208C104.024 27.8057 103.841 17.6449 103.842 15.2207Z" fill="black"/>
<path d="M17.8087 0.0341797C18.0741 0.0742615 18.0787 0.108436 18.3165 0.242102C18.4199 0.969659 17.947 3.05123 17.8606 3.9461C17.3479 9.24907 16.6941 14.8496 16.9645 20.1742C13.82 17.7351 10.1457 14.4814 6.98784 11.8947C8.49163 14.4703 11.1181 17.281 13.0202 19.6367C13.5729 20.3213 14.7789 21.2878 15.1214 21.8135L14.86 22.049C12.7457 22.0878 10.4853 22.3337 8.36476 22.511C5.56798 22.7447 2.71089 22.7787 0 23.498C0.22546 22.0307 0.124003 19.1631 0.114519 17.5863L0.0502823 7.45505C5.57192 4.89178 12.0353 2.74847 17.8087 0.0341797Z" fill="black"/>
<path d="M19.543 0C20.645 0.141002 29.3034 3.99154 30.9092 4.63786C32.6066 5.32104 36.0375 6.66021 37.8262 7.38848C37.8623 9.64899 38.0459 21.5767 37.6199 23.121C36.2526 23.364 26.8677 22.2635 24.7592 22.1382C24.1867 22.1298 23.3713 22.1901 22.9319 21.88C23.0074 21.4832 24.4646 20.2925 24.9608 19.6958C26.9926 17.2518 29.3247 14.6769 30.9472 11.9442C30.157 12.5111 29.1045 13.5133 28.2638 14.1802C25.7431 16.1796 23.252 18.1138 20.9904 20.4083C21.1561 15.178 20.6186 5.17467 19.543 0Z" fill="black"/>
<path d="M37.1925 24.834L37.5799 24.8492L37.7873 25.1906C37.7424 29.428 37.5223 31.433 35.4907 35.2839C32.3616 41.2153 25.7406 46.2389 19.3867 48.1793C20.3059 45.1 20.6565 39.0187 20.9445 35.6645C20.9964 33.2632 21.1042 30.5755 21.0193 28.2018C22.2585 28.9601 23.2009 29.9525 24.3057 30.8531C26.4282 32.5832 28.8799 34.7383 31.2399 36.0914C28.7279 33.468 25.407 28.1717 22.4601 26.3555C26.3948 26.4637 33.2071 25.3518 37.1925 24.834Z" fill="black"/>
<path d="M0.205892 24.7329C5.35981 25.4587 10.0265 26.1556 15.2593 26.4206C13.0462 27.9475 8.74941 33.8095 6.76858 36.177C9.35905 34.5553 11.793 32.4215 14.0969 30.4235C15.0632 29.5857 15.7718 28.9088 16.9343 28.3285C16.8393 30.4519 16.9553 32.522 17.0632 34.6392C17.25 37.8545 17.5395 45.4967 18.7108 48.1631C11.5516 46.2579 4.21676 39.9007 1.43734 33.0649C0.234881 30.108 0.119645 27.8752 0.205892 24.7329Z" fill="black"/>
<path d="M261.325 15.1594L264.537 15.1387C264.498 16.6564 264.453 17.8683 264.595 19.3755C260.928 19.2728 260.479 19.2542 257.226 20.9396C255.648 25.2117 256.265 33.4446 256.27 38.2004C254.671 38.1176 253.168 38.1618 251.572 38.1975C251.394 37.521 251.496 33.4623 251.475 32.5238C251.344 26.8771 251.7 20.8638 251.487 15.2469L256.26 15.2745C256.235 16.0013 256.081 17.173 256.405 17.7469C257.544 17.5871 257.849 15.6733 261.325 15.1594Z" fill="black"/>
<path d="M177.008 15.162L180.172 15.1187C180.19 16.2329 180.206 17.3536 180.219 18.4646C180.26 18.5482 180.167 19.0982 180.063 19.1234C177.397 19.7635 172.773 18.9758 172.172 22.7441C171.834 24.863 171.936 27.2211 171.936 29.3914L171.894 38.2126C170.3 38.123 169.144 38.1367 167.543 38.1951C167.018 37.5087 167.23 32.4399 167.23 31.2489L167.276 15.2679C168.629 15.1979 170.474 15.2554 171.862 15.2566C171.828 15.9951 171.649 17.1698 172.068 17.7335C173.346 17.5597 173.329 15.7233 177.008 15.162Z" fill="black"/>
<path d="M277.232 15.1534C278.261 15.126 279.39 15.1482 280.426 15.1466C280.419 16.5856 280.389 17.9209 280.553 19.3566C277.266 19.3087 276.4 19.1015 273.535 20.8441C272.084 23.2467 272.215 24.8652 272.202 27.579C272.186 31.1239 272.202 34.6724 272.193 38.2175C270.742 38.1158 269.359 38.147 267.906 38.1647C267.865 38.1328 267.82 38.104 267.781 38.069C267.294 37.6315 267.537 17.6388 267.57 15.1935C268.999 15.2708 270.619 15.2389 272.065 15.2413C272.066 16.1914 271.95 17.079 272.344 17.909L272.675 18.0017C273.228 17.7535 273.412 17.1802 273.693 16.616C275.003 15.859 275.767 15.4526 277.232 15.1534Z" fill="black"/>
<path d="M220.539 15.1947C220.7 15.1813 220.889 15.2753 221.056 15.3345C221.288 15.7822 221.201 36.3134 221.201 38.1663C219.809 38.1387 218.415 38.1393 217.022 38.1677C216.931 38.1688 216.647 38.1012 216.541 38.079C216.26 37.4683 216.398 17.4332 216.391 15.1704C217.568 15.2635 219.316 15.2033 220.539 15.1947Z" fill="black"/>
<path d="M217.501 5.86275C220.16 5.58415 222.672 6.20542 221.985 9.79185C221.756 10.988 220.765 11.5977 219.729 12.1425C215.282 12.1429 213.795 7.84233 217.501 5.86275Z" fill="black" fill-opacity="0.988235"/>
</svg>

<svg xmlns="http://www.w3.org/2000/svg" width="305" height="49" fill="none" viewBox="0 0 305 49"><path fill="#000" d="M113.997 5.743c1.462.046 3.134-.007 4.612-.02-.081 1.21-.081 11.837.195 12.596.997.26 1.2-.746 1.812-1.343 5.722-5.611 16.109-1.075 16.794 6.7.426 4.835.409 7.629-2.571 11.614-1.933 2.295-5.35 3.64-8.311 3.5-2.388-.113-3.801-1-5.845-2.023-.378-.762-.719-1.678-1.617-1.906-.816.564-.085 2.376-.654 3.1-.931.268-3.376.202-4.474.226.142-1.645.149-3.637.109-5.293-.217-8.96.332-18.221-.05-27.15m11.857 29.05c5.894-.78 7.666-4.845 6.914-10.24-.262-1.88-1.253-3.416-2.778-4.507a8.18 8.18 0 0 0-4.514-1.508c-5.549 1.064-7.753 4.863-6.779 10.335.696 3.916 3.469 5.456 7.157 5.92"/><path fill="#000" fill-opacity=".988" d="M198.396 5.157q.432-.037.864-.052c3.409-.136 7.5.478 10.059 2.915 2.796 2.663 2.716 5.427 2.857 8.91-1.544-.12-3.475-.119-5.049-.16a307 307 0 0 0-.129-4.07c-.469-.753-1.19-1.527-1.781-2.206-3.929-1.275-5.579-1.723-9.662.096-1.539 2.42-2.416 5.542.823 7.154 4.271 2.127 9.602 1.956 13.563 4.967 3.94 2.995 4.037 8.372.992 12.017-2.5 3.015-5.655 3.684-9.328 4.125q-.121.001-.242-.001c-4.529-.088-9.439-1.768-11.668-5.946-1.271-2.38-1.282-3.82-1.224-6.387q2.395-.07 4.79-.057c-.131 8.159 7.452 9.862 13.472 6.25 1.519-2.557 2.203-5.806-1.127-7.352-4.053-1.881-8.707-1.772-12.621-4.261-4.167-2.651-4.953-7.71-2.308-11.726 1.961-2.925 4.466-3.571 7.719-4.216"/><path fill="#000" d="M290.734 14.604c.591-.031 1.188-.063 1.781-.044 14.408.455 7.023 16.536 9.789 19.352.449.46 2.024.335 2.652.344a34 34 0 0 0 .043 3.82c-1.448.017-5.178.26-6.232-1.013-.516-.622-.38-2.068-1.806-2.066-.478.317-.728 1.077-.975 1.635-2.57 1.664-4.175 2.481-7.446 2.107-1.927-.22-4.511-1.33-5.702-2.91-1.274-1.628-1.484-3.893-1.16-5.81.9-5.275 6.687-5.825 11.017-5.62 1.568.075 2.919-.032 4.511.236-.114-1.238.008-2.808-.681-3.862-2.915-4.46-8.588-2.569-9.937 2.1-.798-.323-3.91-1.365-4.291-1.865.816-1.263.949-2.25 2.078-3.393 1.802-1.823 3.936-2.565 6.359-3.011m2.273 20.075c.971-.445 2.351-1.396 3.16-2.11.615-1.83.807-2.532 1.175-4.377-2.362.061-4.713-.04-7.057.031-7.898.681-3.709 8.59 2.722 6.456"/><path fill="#000" fill-opacity=".988" d="M235.279 14.604c4.559-.288 8.804 1.324 10.987 5.586 1.304 2.55 1.295 5.05 1.487 7.8-5.157-.023-12.857.234-17.742-.12.084.71.184 1.926.449 2.558 2.271 5.437 10.25 6.191 12.583.3.921.274 2.963 1.473 3.903 1.992q-.265.477-.555.936c-1.657 2.58-3.999 4.232-6.995 4.886-3.169.675-6.476.07-9.199-1.685-2.067-1.337-4.117-3.902-4.488-6.367-1.238-8.24.909-14.133 9.57-15.886m-5.32 9.774 6.929.018c1.88.004 4.283-.05 6.121.043-.097-.48-.188-.972-.301-1.448-.755-3.192-3.874-4.58-6.867-4.446-3.405.73-5.112 2.506-5.882 5.833M150.543 14.62q.512-.032 1.024-.05c2.913-.099 6.071.893 8.184 2.94 3.013 2.917 3.37 6.524 3.489 10.42-5.695-.143-12.423.241-17.942-.115q.091.666.216 1.324c1.118 5.684 8.921 7.944 12.374 2.585 1.149-1.692 3.13.172 4.404 1.09-1.303 2.875-4.255 5.018-7.304 5.708-3.198.7-6.544.105-9.305-1.654-2.034-1.312-4.169-4-4.537-6.46-1.185-7.912.892-14.04 9.397-15.789m-5.307 9.809q3.635-.037 7.272-.038c1.875.004 4.155-.045 5.992.045-.349-1.386-.68-2.155-1.102-3.454-2.025-1.614-3.18-2.572-5.966-2.427-3.633.647-4.949 2.57-6.196 5.874M69.047 5.148c5.453-.417 10.505.747 12.979 6.072 1.055 2.272 1.02 3.68 1.196 6.138-1.604-.07-3.147-.02-4.75.02-.176-2.517-.923-6.03-3.39-7.022-7.4-2.978-12.524 1.556-12.047 9.217.2 2.487-.312 5.504.119 7.918 1.258 7.04 7.669 8.504 13.221 5.104 1.643-2.684 1.928-3.372 2.138-6.477 1.223-.108 3.294-.064 4.58-.076.032 3.002-.04 5.122-1.739 7.696-5.348 8.355-21.299 5.935-22.83-4.269-.458-3.05-.543-12.387.091-15.283a12.7 12.7 0 0 1 1.882-4.34c2.224-3.262 4.935-4.003 8.55-4.698"/><path fill="#000" d="M103.842 15.22c1.503.058 3.19.025 4.708.03-.487 9.104.497 19.63-.22 28.85-.018.237-.266.976-.344 1.22-1.607 2.231-3.75 2.107-6.234 2.132-3.997.04-8.03-.137-12.02.029.059-1.457.112-2.508-.023-3.953 4.672-.154 9.412.095 14.04-.113a236 236 0 0 0 .071-9.062c-.945.743-1.634 1.93-2.44 2.523-4.703 3.459-12.939 1.183-13.97-4.93-.566-3.352-.19-7.36-.282-10.816-.04-1.53-.108-4.418.114-5.857l4.323.002a394 394 0 0 0-.061 8.724c-.002 2.037-.088 4.113.222 6.13.721 4.693 6.919 5.764 10.015 2.74a6.95 6.95 0 0 0 1.875-3.348c.408-1.715.225-11.876.226-14.3M17.809.034c.265.04.27.074.508.208.103.728-.37 2.81-.456 3.704-.513 5.303-1.167 10.904-.896 16.228-3.145-2.439-6.82-5.693-9.977-8.28 1.504 2.576 4.13 5.387 6.032 7.743.553.684 1.759 1.65 2.101 2.177l-.261.235c-2.114.039-4.375.285-6.495.462-2.797.234-5.654.268-8.365.987.225-1.467.124-4.335.115-5.912L.05 7.456C5.572 4.891 12.035 2.747 17.81.033M19.543 0c1.102.141 9.76 3.992 11.366 4.638 1.698.683 5.129 2.022 6.917 2.75.036 2.261.22 14.189-.206 15.733-1.367.243-10.752-.857-12.86-.983-.573-.008-1.389.052-1.828-.258.075-.397 1.533-1.587 2.029-2.184 2.032-2.444 4.364-5.02 5.986-7.752-.79.567-1.842 1.57-2.683 2.236-2.52 2-5.012 3.934-7.274 6.228.166-5.23-.371-15.233-1.447-20.408M37.193 24.834l.387.015.207.342c-.045 4.237-.265 6.242-2.296 10.093-3.13 5.931-9.75 10.955-16.104 12.895.919-3.079 1.27-9.16 1.558-12.515.051-2.4.16-5.088.074-7.462 1.24.758 2.182 1.75 3.287 2.651 2.122 1.73 4.574 3.885 6.934 5.238-2.512-2.623-5.833-7.92-8.78-9.736 3.935.109 10.747-1.003 14.733-1.521M.206 24.733c5.154.726 9.82 1.423 15.053 1.688-2.213 1.527-6.51 7.389-8.49 9.756 2.59-1.622 5.024-3.755 7.328-5.753.966-.838 1.675-1.515 2.837-2.096-.095 2.124.021 4.194.13 6.311.186 3.215.476 10.858 1.647 13.524-7.16-1.905-14.494-8.262-17.274-15.098C.235 30.108.12 27.875.206 24.733M261.325 15.16l3.212-.021c-.039 1.517-.084 2.73.058 4.236-3.667-.102-4.116-.12-7.369 1.565-1.578 4.272-.961 12.505-.956 17.26-1.599-.082-3.102-.038-4.698-.003-.178-.676-.076-4.735-.097-5.673-.131-5.647.225-11.66.012-17.277l4.773.027c-.025.727-.179 1.899.145 2.473 1.139-.16 1.444-2.074 4.92-2.588M177.008 15.162l3.164-.043c.018 1.114.034 2.235.047 3.346.041.083-.052.633-.156.658-2.666.64-7.29-.147-7.891 3.621-.338 2.119-.236 4.477-.236 6.647l-.042 8.822c-1.594-.09-2.75-.076-4.351-.018-.525-.686-.313-5.755-.313-6.946l.046-15.981c1.353-.07 3.198-.013 4.586-.011-.034.738-.213 1.913.206 2.476 1.278-.173 1.261-2.01 4.94-2.571M277.232 15.153c1.029-.027 2.158-.005 3.194-.006-.007 1.439-.037 2.774.127 4.21-3.287-.048-4.153-.255-7.018 1.487-1.451 2.403-1.32 4.021-1.333 6.735-.016 3.545 0 7.093-.009 10.639-1.451-.102-2.834-.071-4.287-.053-.041-.032-.086-.061-.125-.096-.487-.437-.244-20.43-.211-22.876 1.429.078 3.049.046 4.495.048.001.95-.115 1.838.279 2.668l.331.093c.553-.248.737-.822 1.018-1.386 1.31-.757 2.074-1.163 3.539-1.463M220.539 15.195c.161-.014.35.08.517.14.232.447.145 20.978.145 22.831a104 104 0 0 0-4.179.002c-.091 0-.375-.067-.481-.089-.281-.61-.143-20.646-.15-22.909 1.177.094 2.925.033 4.148.025"/><path fill="#000" fill-opacity=".988" d="M217.501 5.863c2.659-.279 5.171.342 4.484 3.929-.229 1.196-1.22 1.806-2.256 2.35-4.447 0-5.934-4.3-2.228-6.28"/></svg>
